X: 16988
T: Head Roaster, The
R: reel
M: 4/4
K: Eminor
|:A|BEcE B3 A|G3 B AGED|E2 GE FGAd|ABAG FGAd|
BE E/E/E cEdc|B3 A GFED|E2 GE FGAd|ABFG E3:|
|:A|Be e/e/e gece|e/e/e ge fdBA|de e/e/e fefb|a3 g f3 d|
eB B/B/B cBAG|ADBG AGFD|E2 GE FGAd|ABFG E3:|

